X:1
T:Title
%%score ( 1 2 ) ( 3 4 )
L:1/8
Q:1/4=60
M:6/8
K:D
V:1 treble nm="Choir Aahs, Treble"
V:2 treble 
V:3 bass nm="Choir Aahs, Bass"
V:4 bass 
V:1
 z3 z2 [DF] | [DF][DF][DF] D[CE][DF] | [DG] [DG]2- [DG]2 [DF] | [DF]2 [DE] [CA]2 [EG] | %4
w: 1.~The~|mes sen gers~ tap~ on~ the~|win dows,~ * The~|* dows~ of~ the~|
 [DF]3- [DF] z [FA] | [FA][DA][DA] [DF][CG][DA] | [DB] [GB]2- [GB]2 B | %7
w: soul;~ * They~|car ry~ this~ news~ from~ our~|Sav ior,~ * "I~|
 AGF FED[Q:1/4=59][Q:1/4=58][Q:1/4=57][Q:1/4=56][Q:1/4=55][Q:1/4=54][Q:1/4=53][Q:1/4=52][Q:1/4=51][Q:1/4=50][Q:1/4=49][Q:1/4=48][Q:1/4=47][Q:1/4=46][Q:1/4=45] | %8
w: died~ that~ ye~ might~ be~ made~|
 A3- A[Q:1/4=45] z[Q:1/4=60] A[Q:1/4=12] | %9
w: whole."~ * "I~|
 dcB AGF[Q:1/4=59][Q:1/4=58][Q:1/4=57][Q:1/4=56][Q:1/4=55][Q:1/4=54][Q:1/4=53][Q:1/4=52][Q:1/4=51] | %10
w: died~ that~ ye~ might~ be~ made~|
 B3- B z[Q:1/4=60] c/d/[Q:1/4=50][Q:1/4=49][Q:1/4=48][Q:1/4=47][Q:1/4=46][Q:1/4=45][Q:1/4=12] | %11
w: whole,~ * I~ *|
 [Fd]2[Q:1/4=45] D/[CE]/ [DF][DF]>[CE][Q:1/4=12][Q:1/4=44][Q:1/4=43][Q:1/4=42][Q:1/4=41][Q:1/4=40][Q:1/4=39][Q:1/4=38][Q:1/4=37][Q:1/4=36][Q:1/4=35][Q:1/4=34][Q:1/4=33] | %12
w: died~ that~ ye~ might~ be~ made~|
 .D6 |] %13
w: whole."~|
V:2
 x6 | x6 | x6 | x6 | x6 | x6 | x6 | x6 | x6 | x6 | z3 z2 F | x6 | x6 |] %13
V:3
 z3 z2 [D,A,] | [D,F,][D,F,][D,F,] [D,F,][C,G,][D,A,] | [G,,G,] [G,,G,]2- [G,,G,]2 [D,A,] | %3
 [D,A,]2 [D,A,] [C,A,]2 [C,A,] | [D,F,]3- [D,F,] z [D,A,] | [D,F,][D,F,][D,F,] [D,F,][E,G,][F,A,] | %6
 [G,B,] [G,B,]2- [G,B,]2 B, | A,G,F, F,E,D, | A,3- A, z A, | DCB, A,G,F, | B,3- B, z F,/G,/ | %11
 [D,A,]2 [D,F,]/[E,G,]/ [F,A,][A,,A,]>[C,G,] | .[D,F,]6 |] %13
V:4
 x6 | x6 | x6 | x6 | x6 | x6 | x6 | x6 | x6 | x6 | z3 z2 D, | x6 | x6 |] %13

